img/svg/triol-logo.svg

<svg width="198" height="72" viewBox="0 0 198 72" fill="none" xmlns="http://www.w3.org/2000/svg">
<path d="M5.78215 45.05H10.7421V43.75H5.78215V42.42H11.1421V41H4.01215V48H11.2421V46.58H5.78215V45.05ZM14.8386 41H13.0786V48H19.7986V46.48H14.8386V41ZM23.2704 45.05H28.2304V43.75H23.2704V42.42H28.6304V41H21.5004V48H28.7304V46.58H23.2704V45.05ZM30.4768 46.06C30.4768 47.39 31.0968 48 32.4168 48H36.8868C38.2068 48 38.8268 47.39 38.8268 46.06V44.1H34.7368V45.4H37.1168V45.8C37.1168 46.4 36.9068 46.62 36.2968 46.62H33.0668C32.4568 46.62 32.2468 46.4 32.2468 45.8V43.24C32.2468 42.64 32.4568 42.42 33.0668 42.42H36.2368C36.8468 42.42 37.0568 42.64 37.0568 43.24V43.41H38.8268V42.94C38.8268 41.61 38.2068 41 36.8868 41H32.4168C31.0968 41 30.4768 41.61 30.4768 42.94V46.06ZM49.3826 48L45.6426 41H43.6726L39.9326 48H41.8526L42.5026 46.69H46.7226L47.3726 48H49.3826ZM44.6126 42.42L46.0626 45.36H43.1626L44.6126 42.42ZM57.4369 45.73L52.3969 41H50.8969V48H52.5969V43.2L57.7169 48H59.1369V41H57.4369V45.73ZM60.8324 41V42.52H63.8524V48H65.6124V42.52H68.6324V41H60.8324ZM76.7966 43.83C76.3866 43.83 76.2366 43.68 76.2366 43.27V42.8C76.2366 42.37 76.3866 42.24 76.7966 42.24H79.5866C80.0166 42.24 80.1466 42.37 80.1466 42.8V43.02H81.7966V42.5C81.7966 41.46 81.3266 41 80.2966 41H76.0266C74.9966 41 74.5266 41.46 74.5266 42.5V43.1C74.5266 43.75 74.7366 44.16 75.1566 44.35C74.5366 44.47 74.2266 44.92 74.2266 45.69V46.5C74.2266 47.54 74.6966 48 75.7266 48H80.5966C81.6266 48 82.0966 47.54 82.0966 46.5V44.96H83.1766V43.83H76.7966ZM80.4466 46.2C80.4466 46.63 80.3166 46.76 79.8866 46.76H76.4966C76.0866 46.76 75.9366 46.63 75.9366 46.2V45.52C75.9366 45.09 76.0866 44.96 76.4966 44.96H80.4466V46.2ZM95.9054 41H88.8754V48H90.6454V45.42H95.5054V44H90.6454V42.5H95.9054V41ZM103.65 48C104.97 48 105.59 47.39 105.59 46.06V41H103.83V45.7C103.83 46.3 103.61 46.52 103.01 46.52H100.13C99.5198 46.52 99.3098 46.3 99.3098 45.7V41H97.5498V46.06C97.5498 47.39 98.1698 48 99.4898 48H103.65ZM114.183 45.73L109.143 41H107.643V48H109.343V43.2L114.463 48H115.883V41H114.183V45.73ZM123.838 48C125.398 48 126.238 47.17 126.238 45.6V43.4C126.238 41.83 125.398 41 123.838 41H117.998V48H123.838ZM119.758 42.46H123.438C124.128 42.46 124.478 42.81 124.478 43.5V45.5C124.478 46.19 124.128 46.54 123.438 46.54H119.758V42.46ZM136.609 48L132.869 41H130.899L127.159 48H129.079L129.729 46.69H133.949L134.599 48H136.609ZM131.839 42.42L133.289 45.36H130.389L131.839 42.42ZM142.823 45.11L139.673 41H138.123V48H139.783V43.52L142.313 46.78H143.253L145.783 43.52V48H147.443V41H145.963L142.823 45.11ZM151.333 45.05H156.293V43.75H151.333V42.42H156.693V41H149.563V48H156.793V46.58H151.333V45.05ZM165.169 45.73L160.129 41H158.629V48H160.329V43.2L165.449 48H166.869V41H165.169V45.73ZM168.565 41V42.52H171.585V48H173.345V42.52H176.365V41H168.565ZM185.174 48L181.434 41H179.464L175.724 48H177.644L178.294 46.69H182.514L183.164 48H185.174ZM180.404 42.42L181.854 45.36H178.954L180.404 42.42ZM188.448 41H186.688V48H193.408V46.48H188.448V41ZM15.1256 66H16.9056V59H15.1256V66ZM25.6137 63.73L20.5737 59H19.0737V66H20.7737V61.2L25.8937 66H27.3137V59H25.6137V63.73ZM35.2691 66C36.8291 66 37.6691 65.17 37.6691 63.6V61.4C37.6691 59.83 36.8291 59 35.2691 59H29.4291V66H35.2691ZM31.1891 60.46H34.8691C35.5591 60.46 35.9091 60.81 35.9091 61.5V63.5C35.9091 64.19 35.5591 64.54 34.8691 64.54H31.1891V60.46ZM45.7367 66C47.0567 66 47.6767 65.39 47.6767 64.06V59H45.9167V63.7C45.9167 64.3 45.6967 64.52 45.0967 64.52H42.2167C41.6067 64.52 41.3967 64.3 41.3967 63.7V59H39.6367V64.06C39.6367 65.39 40.2567 66 41.5767 66H45.7367ZM49.6399 64.5C49.6399 65.54 50.1099 66 51.1399 66H56.2899C57.3199 66 57.7899 65.54 57.7899 64.5V63.36C57.7899 62.33 57.3399 61.93 56.2899 61.86L52.0699 61.58C51.6399 61.55 51.5099 61.43 51.5099 61.02V60.89C51.5099 60.48 51.6599 60.33 52.0699 60.33H55.3799C55.7899 60.33 55.9399 60.48 55.9399 60.89V61.04H57.6499V60.5C57.6499 59.46 57.1799 59 56.1499 59H51.2399C50.2099 59 49.7399 59.46 49.7399 60.5V61.46C49.7399 62.47 50.1899 62.88 51.2399 62.96L55.4599 63.24C55.8899 63.28 56.0199 63.39 56.0199 63.8V64.11C56.0199 64.52 55.8699 64.67 55.4599 64.67H51.9099C51.4999 64.67 51.3499 64.52 51.3499 64.11V63.84H49.6399V64.5ZM59.2845 59V60.52H62.3045V66H64.0645V60.52H67.0845V59H59.2845ZM74.9607 63.44C76.1207 63.41 76.6207 62.9 76.6207 61.7V60.74C76.6207 59.5 76.1107 59 74.8807 59H68.7807V66H70.5407V63.56H73.0807L74.9107 66H76.9207L74.9607 63.44ZM74.1707 60.28C74.7007 60.28 74.8607 60.45 74.8607 60.98V61.62C74.8607 62.15 74.7007 62.32 74.1707 62.32H70.5407V60.28H74.1707ZM78.7272 66H80.5072V59H78.7272V66ZM91.5652 66L87.8252 59H85.8552L82.1152 66H84.0352L84.6852 64.69H88.9052L89.5552 66H91.5652ZM86.7952 60.42L88.2452 63.36H85.3452L86.7952 60.42ZM94.8395 59H93.0795V66H99.7995V64.48H94.8395V59ZM105.409 64.5C105.409 65.54 105.879 66 106.909 66H112.059C113.089 66 113.559 65.54 113.559 64.5V63.36C113.559 62.33 113.109 61.93 112.059 61.86L107.839 61.58C107.409 61.55 107.279 61.43 107.279 61.02V60.89C107.279 60.48 107.429 60.33 107.839 60.33H111.149C111.559 60.33 111.709 60.48 111.709 60.89V61.04H113.419V60.5C113.419 59.46 112.949 59 111.919 59H107.009C105.979 59 105.509 59.46 105.509 60.5V61.46C105.509 62.47 105.959 62.88 107.009 62.96L111.229 63.24C111.659 63.28 111.789 63.39 111.789 63.8V64.11C111.789 64.52 111.639 64.67 111.229 64.67H107.679C107.269 64.67 107.119 64.52 107.119 64.11V63.84H105.409V64.5ZM121.901 66C123.221 66 123.841 65.39 123.841 64.06V60.94C123.841 59.61 123.221 59 121.901 59H117.441C116.121 59 115.501 59.61 115.501 60.94V64.06C115.501 65.39 116.121 66 117.441 66H121.901ZM118.081 64.54C117.481 64.54 117.261 64.32 117.261 63.72V61.28C117.261 60.68 117.481 60.46 118.081 60.46H121.261C121.871 60.46 122.081 60.68 122.081 61.28V63.72C122.081 64.32 121.871 64.54 121.261 64.54H118.081ZM127.629 59H125.869V66H132.589V64.48H127.629V59ZM140.252 66C141.572 66 142.192 65.39 142.192 64.06V59H140.432V63.7C140.432 64.3 140.212 64.52 139.612 64.52H136.732C136.122 64.52 135.912 64.3 135.912 63.7V59H134.152V64.06C134.152 65.39 134.772 66 136.092 66H140.252ZM143.826 59V60.52H146.846V66H148.606V60.52H151.626V59H143.826ZM153.372 66H155.152V59H153.372V66ZM163.63 66C164.95 66 165.57 65.39 165.57 64.06V60.94C165.57 59.61 164.95 59 163.63 59H159.17C157.85 59 157.23 59.61 157.23 60.94V64.06C157.23 65.39 157.85 66 159.17 66H163.63ZM159.81 64.54C159.21 64.54 158.99 64.32 158.99 63.72V61.28C158.99 60.68 159.21 60.46 159.81 60.46H162.99C163.6 60.46 163.81 60.68 163.81 61.28V63.72C163.81 64.32 163.6 64.54 162.99 64.54H159.81ZM174.137 63.73L169.097 59H167.597V66H169.297V61.2L174.417 66H175.837V59H174.137V63.73ZM177.863 64.5C177.863 65.54 178.333 66 179.363 66H184.513C185.543 66 186.013 65.54 186.013 64.5V63.36C186.013 62.33 185.563 61.93 184.513 61.86L180.293 61.58C179.863 61.55 179.733 61.43 179.733 61.02V60.89C179.733 60.48 179.883 60.33 180.293 60.33H183.603C184.013 60.33 184.163 60.48 184.163 60.89V61.04H185.873V60.5C185.873 59.46 185.403 59 184.373 59H179.463C178.433 59 177.963 59.46 177.963 60.5V61.46C177.963 62.47 178.413 62.88 179.463 62.96L183.683 63.24C184.113 63.28 184.243 63.39 184.243 63.8V64.11C184.243 64.52 184.093 64.67 183.683 64.67H180.133C179.723 64.67 179.573 64.52 179.573 64.11V63.84H177.863V64.5Z" fill="white"/>
<path d="M33.1992 0V7.54113H44.3984V27.6377H53.0915V7.54113H64.2906V0H33.1992Z" fill="white"/>
<path d="M96.3359 18.0829C100.369 17.6486 102.131 15.5561 102.131 10.9366V7.18579C102.131 2.13205 100.017 0 95.0045 0H70.57V27.6377H79.2631V18.7541H87.1338L93.3991 27.6377H103.306L96.3359 18.0829ZM91.3237 6.2777C92.9292 6.2777 93.4382 6.79097 93.4382 8.40975V10.5418C93.4382 12.1606 92.9292 12.6738 91.3237 12.6738H79.2631V6.2777H91.3237Z" fill="white"/>
<path d="M109.785 27.6377H118.635V0H109.785V27.6377Z" fill="white"/>
<path d="M151.766 27.6377C157.13 27.6377 159.675 25.1503 159.675 19.6622V7.97544C159.675 2.48739 157.13 0 151.766 0H134.066C128.701 0 126.156 2.48739 126.156 7.97544V19.6622C126.156 25.1503 128.701 27.6377 134.066 27.6377H151.766ZM137.355 20.4124C135.476 20.4124 134.849 19.7807 134.849 17.8855V9.75215C134.849 7.85699 135.476 7.22528 137.355 7.22528H148.476C150.317 7.22528 150.982 7.85699 150.982 9.75215V17.8855C150.982 19.7807 150.317 20.4124 148.476 20.4124H137.355Z" fill="white"/>
<path d="M175.674 0H166.981V27.6377H194V20.0965H175.674V0Z" fill="white"/>
<path d="M14.6474 0.00995183C14.8638 0.0398078 15.0803 0.0796157 15.2967 0.109472C16.7707 0.308511 18.121 0.826015 19.3166 1.69184C20.9349 2.86617 21.9553 4.43858 22.5325 6.2996C22.7902 7.12562 22.9242 7.96159 23.0067 8.81746C23.0788 9.61362 23.0891 10.4098 23.0273 11.2159C22.9036 12.7385 22.5841 14.2214 22.0584 15.6545C21.3575 17.5354 20.3989 19.277 19.1826 20.8992C19.0899 21.0186 19.028 21.0385 18.8734 20.9788C17.8427 20.5907 16.8429 20.1528 15.9564 19.5059C15.709 19.3267 15.4823 19.1178 15.2452 18.9386C15.1215 18.8491 15.1215 18.7694 15.1937 18.6401C15.9873 17.3065 16.6161 15.9033 17.1108 14.4403C17.5025 13.2958 17.7911 12.1414 17.987 10.9571C18.1519 9.91217 18.2447 8.86722 18.2137 7.81231C18.1828 6.30956 17.9457 4.85657 17.3788 3.46329C16.7707 2.00035 15.8224 0.826014 14.3588 0.0796158C14.3279 0.0597118 14.3072 0.0298559 14.2866 0C14.4103 0.00995198 14.5237 0.00995183 14.6474 0.00995183Z" fill="#FECC00"/>
<path d="M10.5657 14.3506C10.9471 14.9676 11.2975 15.5846 11.6995 16.1618C13.3384 18.4906 15.4514 20.2919 18.1416 21.4264C19.1311 21.8444 20.1619 22.1131 21.2338 22.2326C22.079 22.3321 22.9243 22.3221 23.7798 22.2823C25.0579 22.2226 26.2432 21.8544 27.3358 21.2274C27.3461 21.2175 27.3667 21.2175 27.4183 21.2075C27.3358 21.4663 27.2534 21.7151 27.1709 21.9539C26.7586 23.0387 26.202 24.0438 25.3877 24.9096C24.3158 26.0541 23.0067 26.7707 21.4503 27.0891C20.4711 27.2882 19.4816 27.328 18.4921 27.2085C16.0905 26.9199 13.9362 26.0442 12.0603 24.5613C10.4832 23.3173 9.23606 21.8046 8.16409 20.1426C7.54565 19.1773 6.99936 18.1821 6.5046 17.157C6.48399 17.1172 6.48399 17.0277 6.51491 16.9978C7.4735 16.132 8.50423 15.3458 9.66897 14.7487C9.96788 14.6093 10.2771 14.48 10.5657 14.3506Z" fill="#04468B"/>
<path d="M1.38184 23.6562C1.15508 23.2083 0.907702 22.7704 0.701554 22.3226C0.144956 21.0786 -0.0508843 19.7749 0.01096 18.4314C0.124341 16.0529 0.938625 13.9132 2.4435 12.0223C3.89684 10.1912 5.7934 8.95711 8.04041 8.20076C9.26699 7.79273 10.5245 7.51408 11.8026 7.34489C12.9467 7.19561 14.1012 7.1359 15.2556 7.18566C15.9771 7.22547 16.6986 7.32499 17.4201 7.4046C17.5232 7.41456 17.5438 7.46432 17.5335 7.55388C17.4717 8.27043 17.451 8.98697 17.3583 9.70351C17.2655 10.4201 17.1212 11.1366 17.0078 11.8531C16.9872 11.9726 16.9357 11.9925 16.8223 11.9925C14.2351 12.0024 11.8232 12.6592 9.5659 13.8435C8.24656 14.5402 7.03029 15.3861 5.90678 16.3514C4.80389 17.3068 3.81438 18.3617 2.96918 19.546C2.20643 20.6009 1.69106 21.7653 1.50553 23.0391C1.47461 23.2282 1.4643 23.4273 1.45399 23.6263C1.42307 23.6363 1.40246 23.6462 1.38184 23.6562Z" fill="#D51030"/>
<path d="M10.4112 25.5969C10.1122 25.7761 9.82364 25.9751 9.51441 26.1443C8.70013 26.5623 7.824 26.7912 6.90664 26.8608C5.91713 26.9305 4.97916 26.7912 4.10303 26.3234C3.23721 25.8557 2.67031 25.1491 2.30955 24.2634C2.25801 24.144 2.2477 24.0146 2.2477 23.8852C2.2374 22.1436 2.77338 20.5812 3.83504 19.1879C3.84535 19.168 3.87627 19.158 3.90719 19.1282C4.04119 19.7751 4.22672 20.3821 4.49472 20.9593C5.22654 22.5815 6.31912 23.9051 7.91677 24.8008C8.67951 25.2287 9.50411 25.4875 10.4009 25.5571C10.3905 25.5671 10.4008 25.577 10.4112 25.5969Z" fill="#91232A"/>
<path d="M7.40146 5.42423C7.38085 4.91668 7.41177 4.41908 7.52515 3.93143C7.72099 3.08552 8.11267 2.33912 8.77234 1.75195C9.59693 1.01551 10.5761 0.547765 11.6996 0.398485C13.122 0.209398 14.3692 0.587573 15.4412 1.50315C15.8329 1.84152 16.1009 2.26946 16.3379 2.71729C16.575 3.17508 16.7915 3.64283 17.0182 4.11057C17.0079 4.12052 16.9873 4.13047 16.977 4.14043C16.7915 4.07076 16.5956 3.99115 16.4101 3.92148C15.5649 3.62292 14.6991 3.43384 13.792 3.36417C12.3181 3.2547 10.8957 3.44379 9.53509 4.01105C8.80327 4.31956 8.1539 4.7475 7.57669 5.29485C7.52515 5.34461 7.49423 5.40433 7.453 5.46404C7.43239 5.44413 7.41177 5.43418 7.40146 5.42423Z" fill="#E49A00"/>
<path d="M25.4082 13.3655C25.9132 13.6839 26.3358 14.092 26.6863 14.5697C27.2944 15.3957 27.6552 16.3113 27.8304 17.3065C27.9232 17.814 27.9541 18.3315 27.9232 18.849C27.9026 19.1774 27.8304 19.4959 27.7376 19.8144C27.6964 19.9537 27.5624 20.0731 27.4387 20.1826C26.6657 20.9091 25.7071 21.2972 24.6661 21.4962C23.9961 21.6256 23.3158 21.6853 22.6355 21.6953C22.584 21.6953 22.5427 21.6953 22.4912 21.6953C24.8516 19.3665 25.7999 16.5999 25.4082 13.3655Z" fill="#202B59"/>
<path d="M6.89615 7.62281C6.13341 8.00099 5.40158 8.37916 4.65945 8.74739C4.36054 7.42377 5.96849 3.48279 7.06107 2.91553C6.73124 4.48794 6.46324 6.0504 6.89615 7.62281Z" fill="#04468B"/>
<path d="M23.9546 11.9225C23.9958 11.395 24.037 10.9074 24.0577 10.4098C24.0783 9.92214 24.0577 9.43449 24.0577 8.91699C25.5625 10.2307 26.3974 11.8827 26.8716 13.7636C26.0676 12.8779 25.0472 12.3206 23.9546 11.9225Z" fill="#D51030"/>
<path d="M11.5035 25.4275C12.2456 25.8654 12.9672 26.2834 13.6784 26.7013C12.6682 27.3582 9.78218 27.9055 7.81348 27.4975C7.90624 27.4676 7.95778 27.4477 8.00932 27.4278C8.69991 27.2188 9.3905 27.0098 10.0296 26.6615C10.5862 26.363 11.05 25.9848 11.4314 25.4972C11.4623 25.4573 11.5035 25.4275 11.5035 25.4275Z" fill="#FECC00"/>
</svg>

<svg width="198" height="72" viewBox="0 0 198 72" fill="none" xmlns="http://www.w3.org/2000/svg"><path d="M5.782 45.05h4.96v-1.3h-4.96v-1.33h5.36V41h-7.13v7h7.23v-1.42h-5.46v-1.53zM14.84 41h-1.76v7h6.72v-1.52h-4.96V41zm8.431 4.05h4.96v-1.3h-4.96v-1.33h5.36V41H21.5v7h7.23v-1.42h-5.46v-1.53zm7.207 1.01c0 1.33.62 1.94 1.94 1.94h4.47c1.32 0 1.94-.61 1.94-1.94V44.1h-4.09v1.3h2.38v.4c0 .6-.21.82-.82.82h-3.23c-.61 0-.82-.22-.82-.82v-2.56c0-.6.21-.82.82-.82h3.17c.61 0 .82.22.82.82v.17h1.77v-.47c0-1.33-.62-1.94-1.94-1.94h-4.47c-1.32 0-1.94.61-1.94 1.94v3.12zM49.383 48l-3.74-7h-1.97l-3.74 7h1.92l.65-1.31h4.22l.65 1.31h2.01zm-4.77-5.58l1.45 2.94h-2.9l1.45-2.94zm12.824 3.31L52.397 41h-1.5v7h1.7v-4.8l5.12 4.8h1.42v-7h-1.7v4.73zM60.832 41v1.52h3.02V48h1.76v-5.48h3.02V41h-7.8zm15.965 2.83c-.41 0-.56-.15-.56-.56v-.47c0-.43.15-.56.56-.56h2.79c.43 0 .56.13.56.56v.22h1.65v-.52c0-1.04-.47-1.5-1.5-1.5h-4.27c-1.03 0-1.5.46-1.5 1.5v.6c0 .65.21 1.06.63 1.25-.62.12-.93.57-.93 1.34v.81c0 1.04.47 1.5 1.5 1.5h4.87c1.03 0 1.5-.46 1.5-1.5v-1.54h1.08v-1.13h-6.38zm3.65 2.37c0 .43-.13.56-.56.56h-3.39c-.41 0-.56-.13-.56-.56v-.68c0-.43.15-.56.56-.56h3.95v1.24zM95.905 41h-7.03v7h1.77v-2.58h4.86V44h-4.86v-1.5h5.26V41zm7.745 7c1.32 0 1.94-.61 1.94-1.94V41h-1.76v4.7c0 .6-.22.82-.82.82h-2.88c-.61 0-.82-.22-.82-.82V41h-1.76v5.06c0 1.33.62 1.94 1.94 1.94h4.16zm10.533-2.27l-5.04-4.73h-1.5v7h1.7v-4.8l5.12 4.8h1.42v-7h-1.7v4.73zm9.655 2.27c1.56 0 2.4-.83 2.4-2.4v-2.2c0-1.57-.84-2.4-2.4-2.4h-5.84v7h5.84zm-4.08-5.54h3.68c.69 0 1.04.35 1.04 1.04v2c0 .69-.35 1.04-1.04 1.04h-3.68v-4.08zM136.609 48l-3.74-7h-1.97l-3.74 7h1.92l.65-1.31h4.22l.65 1.31h2.01zm-4.77-5.58l1.45 2.94h-2.9l1.45-2.94zm10.984 2.69l-3.15-4.11h-1.55v7h1.66v-4.48l2.53 3.26h.94l2.53-3.26V48h1.66v-7h-1.48l-3.14 4.11zm8.51-.06h4.96v-1.3h-4.96v-1.33h5.36V41h-7.13v7h7.23v-1.42h-5.46v-1.53zm13.836.68l-5.04-4.73h-1.5v7h1.7v-4.8l5.12 4.8h1.42v-7h-1.7v4.73zm3.396-4.73v1.52h3.02V48h1.76v-5.48h3.02V41h-7.8zm16.609 7l-3.74-7h-1.97l-3.74 7h1.92l.65-1.31h4.22l.65 1.31h2.01zm-4.77-5.58l1.45 2.94h-2.9l1.45-2.94zm8.044-1.42h-1.76v7h6.72v-1.52h-4.96V41zM15.126 66h1.78v-7h-1.78v7zm10.488-2.27L20.574 59h-1.5v7h1.7v-4.8l5.12 4.8h1.42v-7h-1.7v4.73zM35.269 66c1.56 0 2.4-.83 2.4-2.4v-2.2c0-1.57-.84-2.4-2.4-2.4h-5.84v7h5.84zm-4.08-5.54h3.68c.69 0 1.04.35 1.04 1.04v2c0 .69-.35 1.04-1.04 1.04h-3.68v-4.08zM45.737 66c1.32 0 1.94-.61 1.94-1.94V59h-1.76v4.7c0 .6-.22.82-.82.82h-2.88c-.61 0-.82-.22-.82-.82V59h-1.76v5.06c0 1.33.62 1.94 1.94 1.94h4.16zm3.903-1.5c0 1.04.47 1.5 1.5 1.5h5.15c1.03 0 1.5-.46 1.5-1.5v-1.14c0-1.03-.45-1.43-1.5-1.5l-4.22-.28c-.43-.03-.56-.15-.56-.56v-.13c0-.41.15-.56.56-.56h3.31c.41 0 .56.15.56.56v.15h1.71v-.54c0-1.04-.47-1.5-1.5-1.5h-4.91c-1.03 0-1.5.46-1.5 1.5v.96c0 1.01.45 1.42 1.5 1.5l4.22.28c.43.04.56.15.56.56v.31c0 .41-.15.56-.56.56h-3.55c-.41 0-.56-.15-.56-.56v-.27h-1.71v.66zm9.645-5.5v1.52h3.02V66h1.76v-5.48h3.02V59h-7.8zm15.676 4.44c1.16-.03 1.66-.54 1.66-1.74v-.96c0-1.24-.51-1.74-1.74-1.74h-6.1v7h1.76v-2.44h2.54L74.91 66h2.01l-1.96-2.56zm-.79-3.16c.53 0 .69.17.69.7v.64c0 .53-.16.7-.69.7h-3.63v-2.04h3.63zM78.727 66h1.78v-7h-1.78v7zm12.838 0l-3.74-7h-1.97l-3.74 7h1.92l.65-1.31h4.22l.65 1.31h2.01zm-4.77-5.58l1.45 2.94h-2.9l1.45-2.94zM94.84 59h-1.76v7h6.72v-1.52h-4.96V59zm10.57 5.5c0 1.04.47 1.5 1.5 1.5h5.15c1.03 0 1.5-.46 1.5-1.5v-1.14c0-1.03-.45-1.43-1.5-1.5l-4.22-.28c-.43-.03-.56-.15-.56-.56v-.13c0-.41.15-.56.56-.56h3.31c.41 0 .56.15.56.56v.15h1.71v-.54c0-1.04-.47-1.5-1.5-1.5h-4.91c-1.03 0-1.5.46-1.5 1.5v.96c0 1.01.45 1.42 1.5 1.5l4.22.28c.43.04.56.15.56.56v.31c0 .41-.15.56-.56.56h-3.55c-.41 0-.56-.15-.56-.56v-.27h-1.71v.66zm16.492 1.5c1.32 0 1.94-.61 1.94-1.94v-3.12c0-1.33-.62-1.94-1.94-1.94h-4.46c-1.32 0-1.94.61-1.94 1.94v3.12c0 1.33.62 1.94 1.94 1.94h4.46zm-3.82-1.46c-.6 0-.82-.22-.82-.82v-2.44c0-.6.22-.82.82-.82h3.18c.61 0 .82.22.82.82v2.44c0 .6-.21.82-.82.82h-3.18zM127.63 59h-1.76v7h6.72v-1.52h-4.96V59zm12.623 7c1.32 0 1.94-.61 1.94-1.94V59h-1.76v4.7c0 .6-.22.82-.82.82h-2.88c-.61 0-.82-.22-.82-.82V59h-1.76v5.06c0 1.33.62 1.94 1.94 1.94h4.16zm3.574-7v1.52h3.02V66h1.76v-5.48h3.02V59h-7.8zm9.546 7h1.78v-7h-1.78v7zm10.258 0c1.32 0 1.94-.61 1.94-1.94v-3.12c0-1.33-.62-1.94-1.94-1.94h-4.46c-1.32 0-1.94.61-1.94 1.94v3.12c0 1.33.62 1.94 1.94 1.94h4.46zm-3.82-1.46c-.6 0-.82-.22-.82-.82v-2.44c0-.6.22-.82.82-.82h3.18c.61 0 .82.22.82.82v2.44c0 .6-.21.82-.82.82h-3.18zm14.327-.81l-5.04-4.73h-1.5v7h1.7v-4.8l5.12 4.8h1.42v-7h-1.7v4.73zm3.726.77c0 1.04.47 1.5 1.5 1.5h5.15c1.03 0 1.5-.46 1.5-1.5v-1.14c0-1.03-.45-1.43-1.5-1.5l-4.22-.28c-.43-.03-.56-.15-.56-.56v-.13c0-.41.15-.56.56-.56h3.31c.41 0 .56.15.56.56v.15h1.71v-.54c0-1.04-.47-1.5-1.5-1.5h-4.91c-1.03 0-1.5.46-1.5 1.5v.96c0 1.01.45 1.42 1.5 1.5l4.22.28c.43.04.56.15.56.56v.31c0 .41-.15.56-.56.56h-3.55c-.41 0-.56-.15-.56-.56v-.27h-1.71v.66zM33.2 0v7.541h11.198v20.097h8.694V7.54H64.29V0H33.199zm63.136 18.083c4.033-.434 5.795-2.527 5.795-7.146V7.186c0-5.054-2.114-7.186-7.127-7.186H70.57v27.638h8.693v-8.884h7.87l6.266 8.884h9.907l-6.97-9.555zM91.324 6.278c1.605 0 2.114.513 2.114 2.132v2.132c0 1.619-.509 2.132-2.114 2.132h-12.06V6.278h12.06zm18.461 21.36h8.85V0h-8.85v27.638zm41.981 0c5.364 0 7.909-2.488 7.909-7.976V7.975c0-5.488-2.545-7.975-7.909-7.975h-17.7c-5.365 0-7.91 2.487-7.91 7.975v11.687c0 5.488 2.545 7.976 7.91 7.976h17.7zm-14.411-7.226c-1.879 0-2.506-.631-2.506-2.526V9.752c0-1.895.627-2.527 2.506-2.527h11.121c1.841 0 2.506.632 2.506 2.527v8.133c0 1.896-.665 2.527-2.506 2.527h-11.121zM175.674 0h-8.693v27.638H194v-7.542h-18.326V0z" fill="#fff"/><path d="M14.647.01c.217.03.433.07.65.1 1.474.199 2.824.716 4.02 1.582 1.618 1.174 2.638 2.747 3.215 4.608.258.826.392 1.662.475 2.517.072.797.082 1.593.02 2.399a16.783 16.783 0 01-.969 4.439c-.7 1.88-1.66 3.622-2.875 5.244-.093.12-.155.14-.31.08-1.03-.388-2.03-.826-2.917-1.473-.247-.18-.474-.388-.71-.567-.125-.09-.125-.17-.052-.299a21.878 21.878 0 001.917-4.2c.392-1.144.68-2.299.876-3.483.165-1.045.258-2.09.227-3.145-.031-1.502-.268-2.955-.835-4.349C16.77 2 15.822.826 14.359.08a.272.272 0 01-.072-.08c.123.01.237.01.36.01z" fill="#FECC00"/><path d="M10.566 14.35c.381.618.731 1.235 1.133 1.812 1.64 2.329 3.752 4.13 6.443 5.264.99.418 2.02.687 3.092.807.845.1 1.69.09 2.546.05a7.798 7.798 0 003.556-1.056c.01-.01.03-.01.082-.02-.082.26-.165.508-.247.747-.412 1.085-.969 2.09-1.783 2.956-1.072 1.144-2.381 1.86-3.938 2.18a9.27 9.27 0 01-2.958.119c-2.402-.29-4.556-1.165-6.432-2.648-1.577-1.244-2.824-2.756-3.896-4.418a28.382 28.382 0 01-1.66-2.986c-.02-.04-.02-.13.01-.16.96-.865 1.99-1.651 3.155-2.248.299-.14.608-.269.897-.398z" fill="#04468B"/><path d="M1.382 23.656c-.227-.448-.474-.886-.68-1.333-.557-1.244-.753-2.548-.691-3.892.113-2.378.928-4.518 2.433-6.409 1.453-1.83 3.35-3.065 5.596-3.821a20.356 20.356 0 013.763-.856 20.021 20.021 0 013.453-.16c.721.04 1.443.14 2.164.22.103.01.124.06.113.149-.061.716-.082 1.433-.175 2.15-.093.716-.237 1.433-.35 2.15-.02.119-.072.139-.186.139-2.587.01-4.999.666-7.256 1.85a19.804 19.804 0 00-3.66 2.508 18.283 18.283 0 00-2.937 3.195c-.763 1.055-1.278 2.22-1.463 3.493-.031.19-.042.388-.052.587a.512.512 0 00-.072.03z" fill="#D51030"/><path d="M10.411 25.597c-.299.18-.587.378-.897.547a6.78 6.78 0 01-2.607.717c-.99.07-1.928-.07-2.804-.538-.866-.467-1.433-1.174-1.793-2.06a.943.943 0 01-.062-.378c-.01-1.741.525-3.304 1.587-4.697.01-.02.041-.03.072-.06.134.647.32 1.254.588 1.831.732 1.622 1.824 2.946 3.422 3.842a5.958 5.958 0 002.484.756c-.01.01 0 .02.01.04z" fill="#91232A"/><path d="M7.401 5.424c-.02-.507.01-1.005.124-1.493.196-.845.588-1.592 1.247-2.179A5.389 5.389 0 0111.7.398c1.422-.189 2.67.19 3.741 1.105.392.339.66.766.897 1.214.237.458.453.926.68 1.394-.01.01-.03.02-.041.03-.186-.07-.381-.15-.567-.22a10.132 10.132 0 00-2.618-.557c-1.474-.11-2.896.08-4.257.647a6.478 6.478 0 00-1.958 1.284c-.052.05-.083.11-.124.169-.02-.02-.041-.03-.052-.04z" fill="#E49A00"/><path d="M25.408 13.366c.505.318.928.726 1.278 1.204.608.826.97 1.741 1.144 2.736.093.508.124 1.025.093 1.543a4.44 4.44 0 01-.185.965c-.042.14-.176.26-.3.369-.772.726-1.73 1.114-2.772 1.313-.67.13-1.35.19-2.03.2h-.145c2.36-2.33 3.309-5.096 2.917-8.33z" fill="#202B59"/><path d="M6.896 7.623C6.133 8 5.402 8.379 4.66 8.747c-.298-1.323 1.31-5.264 2.402-5.831-.33 1.572-.598 3.134-.165 4.707z" fill="#04468B"/><path d="M23.955 11.922c.04-.527.082-1.015.103-1.512.02-.488 0-.976 0-1.493 1.505 1.314 2.34 2.966 2.814 4.847-.804-.886-1.825-1.443-2.917-1.841z" fill="#D51030"/><path d="M11.504 25.427c.742.438 1.463.856 2.174 1.274-1.01.657-3.896 1.204-5.865.796.093-.03.145-.05.196-.07.69-.208 1.381-.417 2.02-.765a4.348 4.348 0 001.402-1.165c.031-.04.073-.07.073-.07z" fill="#FECC00"/></svg>
